src/scalable/mimetypes/text-x-readme.svg

<svg xmlns="http://www.w3.org/2000/svg" xmlns:xlink="http://www.w3.org/1999/xlink" width="48" height="48"><g paint-order="markers stroke fill"><rect rx="2" ry="1.905" y="4" x="6" height="40" width="36" fill="#f9a825"/><path d="M42 17.242A40 40 0 0 1 23.494 44H40c1.108 0 2-.85 2-1.904z" opacity=".15" fill="url(#a)"/></g><defs><linearGradient xlink:href="#b" id="a" x1="32.747" y1="44" x2="32.747" y2="17.242" gradientUnits="userSpaceOnUse"/><linearGradient id="b"><stop offset="0"/><stop offset="1" stop-opacity="0"/></linearGradient></defs><path d="M28.116 16.476c-.468-.972-1.512-1.404-2.088-.792-.576.612-.756 1.692-.18 2.664.54.936 1.548 1.044 2.016.54.468-.504.72-1.476.252-2.412zM22.248 33.54c2.016 0 4.284-1.512 5.364-3.744.432-.9.54-1.656.252-2.232-.144-.288-.396-.324-.576 0-1.08 2.484-3.06 4.86-4.68 4.932-1.152.072-1.224-1.332-.36-3.42.756-1.8 2.268-4.248 3.024-5.832.864-1.8.576-3.348.036-3.924-.288-.324-.54-.216-.864.216-1.332 1.872-3.708 6.12-4.608 8.748-1.008 2.952-.324 5.256 2.412 5.256z" fill="#FFF" fill-rule="evenodd"/></svg>

<?xml version="1.0" encoding="UTF-8" standalone="no"?>
<svg
   xmlns:dc="http://purl.org/dc/elements/1.1/"
   xmlns:cc="http://creativecommons.org/ns#"
   xmlns:rdf="http://www.w3.org/1999/02/22-rdf-syntax-ns#"
   xmlns:svg="http://www.w3.org/2000/svg"
   xmlns="http://www.w3.org/2000/svg"
   xmlns:xlink="http://www.w3.org/1999/xlink"
   xmlns:sodipodi="http://sodipodi.sourceforge.net/DTD/sodipodi-0.dtd"
   xmlns:inkscape="http://www.inkscape.org/namespaces/inkscape"
   width="48px"
   height="48px"
   viewBox="0 0 48 48"
   version="1.1"
   id="svg18"
   sodipodi:docname="text-x-readme.svg"
   inkscape:version="0.92.2 2405546, 2018-03-11">
  <metadata
     id="metadata22">
    <rdf:RDF>
      <cc:Work
         rdf:about="">
        <dc:format>image/svg+xml</dc:format>
        <dc:type
           rdf:resource="http://purl.org/dc/dcmitype/StillImage" />
      </cc:Work>
    </rdf:RDF>
  </metadata>
  <sodipodi:namedview
     pagecolor="#ffffff"
     bordercolor="#666666"
     borderopacity="1"
     objecttolerance="10"
     gridtolerance="10"
     guidetolerance="10"
     inkscape:pageopacity="0"
     inkscape:pageshadow="2"
     inkscape:window-width="930"
     inkscape:window-height="632"
     id="namedview20"
     showgrid="false"
     inkscape:zoom="4.9166667"
     inkscape:cx="24"
     inkscape:cy="24"
     inkscape:window-x="0"
     inkscape:window-y="29"
     inkscape:window-maximized="0"
     inkscape:current-layer="svg18" />
  <!-- Generator: Sketch 41.2 (35397) - http://www.bohemiancoding.com/sketch -->
  <title
     id="title2">text-x-readme</title>
  <desc
     id="desc4">Created with Sketch.</desc>
  <g
     id="g829">
    <rect
       rx="2"
       ry="1.9047618"
       y="4"
       x="6"
       height="40"
       width="36"
       id="rect834"
       style="opacity:1;fill:#f9a825;fill-opacity:1;stroke:none;stroke-width:0.92582005;stroke-linecap:round;stroke-linejoin:round;stroke-miterlimit:4;stroke-dasharray:none;stroke-opacity:0.05882353;paint-order:markers stroke fill" />
    <path
       inkscape:connector-curvature="0"
       id="rect866"
       d="M 42,17.242188 A 40,40 0 0 1 23.494141,44 H 40 c 1.108,0 2,-0.849059 2,-1.904297 z"
       style="opacity:0.15;fill:url(#linearGradient877);fill-opacity:1;stroke:none;stroke-width:0.92582005;stroke-linecap:round;stroke-linejoin:round;stroke-miterlimit:4;stroke-dasharray:none;stroke-opacity:0.05882353;paint-order:markers stroke fill" />
  </g>
  <defs
     id="defs11">
    <linearGradient
       inkscape:collect="always"
       xlink:href="#linearGradient875"
       id="linearGradient877"
       x1="32.74707"
       y1="44"
       x2="32.74707"
       y2="17.242188"
       gradientUnits="userSpaceOnUse" />
    <linearGradient
       inkscape:collect="always"
       id="linearGradient875">
      <stop
         style="stop-color:#000000;stop-opacity:1;"
         offset="0"
         id="stop871" />
      <stop
         style="stop-color:#000000;stop-opacity:0;"
         offset="1"
         id="stop873" />
    </linearGradient>
  </defs>
  <g
     id="Page-1"
     stroke="none"
     stroke-width="1"
     fill="none"
     fill-rule="evenodd">
    <g
       id="text-x-readme">
      <path
         d="M28.116,16.476 C27.648,15.504 26.604,15.072 26.028,15.684 C25.452,16.296 25.272,17.376 25.848,18.348 C26.388,19.284 27.396,19.392 27.864,18.888 C28.332,18.384 28.584,17.412 28.116,16.476 Z M22.248,33.54 C24.264,33.54 26.532,32.028 27.612,29.796 C28.044,28.896 28.152,28.14 27.864,27.564 C27.72,27.276 27.468,27.24 27.288,27.564 C26.208,30.048 24.228,32.424 22.608,32.496 C21.456,32.568 21.384,31.164 22.248,29.076 C23.004,27.276 24.516,24.828 25.272,23.244 C26.136,21.444 25.848,19.896 25.308,19.32 C25.02,18.996 24.768,19.104 24.444,19.536 C23.112,21.408 20.736,25.656 19.836,28.284 C18.828,31.236 19.512,33.54 22.248,33.54 Z"
         id="i"
         fill="#FFFFFF" />
    </g>
  </g>
</svg>
